domains/misc/badssl.com/front-page-icons/good.svg

<svg height="32" viewBox="0 0 32 32" width="32" xmlns="http://www.w3.org/2000/svg"><g fill="none" fill-rule="evenodd" transform=""><path d="m0 0h32v32h-32z"/><path d="m21 12.9999998v-2c0-2.76000957-2.2399902-4.9999998-5-4.9999998-2.7600098.02034414-5 2.23999023-5 4.9999998v2s.1000061.0000002-1 0c-1.1000061-.0000001-2 .9003068-2 1.9926758v10.0073244c0 1.1000061.90002441 2 2 2h12c1.0999756 0 2-.8999939 2-2s0-8.8999939 0-10c0-1.0554579-.8999939-2-2-2.0000002-1.1000061.0000002-1 0-1 0zm-8 .0202284v-2.0202282c0-1.66000366 1.3399963-3 3-3s3 1.33999634 3 3v2.0202282z" fill="#0b8043"/></g></svg>

<?xml version="1.0" encoding="UTF-8" standalone="no"?>
<svg width="32px" height="32px" viewBox="0 0 32 32" version="1.1" xmlns="http://www.w3.org/2000/svg" xmlns:xlink="http://www.w3.org/1999/xlink">
    <!-- Generator: Sketch 39.1 (31720) - http://www.bohemiancoding.com/sketch -->
    <title>https_valid@1x</title>
    <desc>Created with Sketch.</desc>
    <defs></defs>
    <g id="Page" stroke="none" stroke-width="1" fill="none" fill-rule="evenodd">
        <g id="Non-Touch-Summary-Icons" transform="translate(-128.000000, -192.000000)">
            <g id="Icon" transform="translate(128.000000, 192.000000)">
                <polygon id="Layout" points="0 0 32 0 32 32 0 32"></polygon>
                <path d="M21,12.9999998 L21,10.9999998 C21,8.23999023 18.7600098,6 16,6 C13.2399902,6.02034414 11,8.23999023 11,10.9999998 L11,12.9999998 C11,12.9999998 11.1000061,13 10,12.9999998 C8.8999939,12.9999997 8,13.9003066 8,14.9926756 L8,25 C8,26.1000061 8.90002441,27 10,27 C11.0999756,27 20.9000244,27 22,27 C23.0999756,27 24,26.1000061 24,25 C24,23.8999939 24,16.1000061 24,15 C24,13.9445421 23.1000061,13 22,12.9999998 C20.8999939,13 21,12.9999998 21,12.9999998 Z M13,13.0202282 L13,11 C13,9.33999634 14.3399963,8 16,8 C17.6600037,8 19,9.33999634 19,11 L19,13.0202282 L13,13.0202282 Z" fill="#0B8043"></path>
            </g>
        </g>
    </g>
</svg>
